Papirus/64x64/apps/distributor-logo-openmandriva.svg

<svg width="64" height="64" version="1.1" xmlns="http://www.w3.org/2000/svg">
 <circle cx="32" cy="33" r="28" style="opacity:.2"/>
 <circle cx="32" cy="32" r="28" style="fill:#248afd"/>
 <path d="M 32,4 A 28,28 0 0 0 4,32 28,28 0 0 0 4.0215,32.586 28,28 0 0 1 32,5 28,28 0 0 1 59.979,32.414 28,28 0 0 0 60,32 28,28 0 0 0 32,4 Z" style="fill:#ffffff;opacity:.2"/>
 <path d="m 32.000001,9.0000085 a 24,23.999996 0 0 0 -24,23.9999965 A 24,23.999996 0 0 0 32.000001,57 24,23.999996 0 0 0 55.390624,38.292972 18,17.999997 0 0 1 40,47.000001 18,17.999997 0 0 1 22,29.000004 18,17.999997 0 0 1 40,11.000009 18,17.999997 0 0 1 41.746095,11.085949 24,23.999996 0 0 0 32.000001,9.000001 Z M 40,13.000008 A 16.000001,15.999998 0 0 0 24.000001,29.000005 16.000001,15.999998 0 0 0 40,45.000002 16.000001,15.999998 0 0 0 56.000001,29.000005 16.000001,15.999998 0 0 0 40,13.000008 Z m 0,4 A 12,11.999998 0 0 1 52,29.000005 12,11.999998 0 0 1 40,41.000002 12,11.999998 0 0 1 28,29.000005 12,11.999998 0 0 1 40,17.000008 Z" style="opacity:.2"/>
 <path d="M 32,8 A 24,23.999996 0 0 0 8,31.999997 24,23.999996 0 0 0 32,55.999992 24,23.999996 0 0 0 55.390623,37.292964 a 18,17.999997 0 0 1 -15.390624,8.707029 18,17.999997 0 0 1 -18,-17.999997 18,17.999997 0 0 1 18,-17.999995 18,17.999997 0 0 1 1.746095,0.08594 A 24,23.999996 0 0 0 32,7.9999925 Z m 7.999999,4 A 16.000001,15.999998 0 0 0 24,27.999997 16.000001,15.999998 0 0 0 39.999999,43.999994 16.000001,15.999998 0 0 0 56,27.999997 16.000001,15.999998 0 0 0 39.999999,12 Z m 0,4 a 12,11.999998 0 0 1 12,11.999997 12,11.999998 0 0 1 -12,11.999997 12,11.999998 0 0 1 -12,-11.999997 12,11.999998 0 0 1 12,-11.999997 z" style="fill:#ffffff"/>
</svg>

<svg xmlns="http://www.w3.org/2000/svg" width="64" height="64" version="1.1">
 <circle style="opacity:0.2" cx="32" cy="33" r="28"/>
 <circle style="fill:#248afd" cx="32" cy="32" r="28"/>
 <path style="opacity:0.2;fill:#ffffff" d="M 32,4 A 28,28 0 0 0 4,32 28,28 0 0 0 4.0215,32.586 28,28 0 0 1 32,5 28,28 0 0 1 59.979,32.414 28,28 0 0 0 60,32 28,28 0 0 0 32,4 Z"/>
 <path style="opacity:0.2" d="M 32,9 A 24,24 0 0 0 8,33 24,24 0 0 0 32,57 24,24 0 0 0 55.391,38.293 18,18 0 0 1 40,47 18,18 0 0 1 22,29 18,18 0 0 1 40,11 18,18 0 0 1 41.746,11.086 24,24 0 0 0 32,9 Z M 40,13 A 16,16 0 0 0 24,29 16,16 0 0 0 40,45 16,16 0 0 0 56,29 16,16 0 0 0 40,13 Z M 40,17 A 12,12 0 0 1 52,29 12,12 0 0 1 40,41 12,12 0 0 1 28,29 12,12 0 0 1 40,17 Z"/>
 <path style="fill:#ffffff" d="M 32,8 A 24,24 0 0 0 8,32 24,24 0 0 0 32,56 24,24 0 0 0 55.391,37.293 18,18 0 0 1 40,46 18,18 0 0 1 22,28 18,18 0 0 1 40,10 18,18 0 0 1 41.746,10.086 24,24 0 0 0 32,8 Z M 40,12 A 16,16 0 0 0 24,28 16,16 0 0 0 40,44 16,16 0 0 0 56,28 16,16 0 0 0 40,12 Z M 40,16 A 12,12 0 0 1 52,28 12,12 0 0 1 40,40 12,12 0 0 1 28,28 12,12 0 0 1 40,16 Z"/>
</svg>
